X: 1175
T: An Coileach Ag Fogairt An Lae
R: jig
M: 6/8
K: Gmajor
D|:GAB AGE|c2 B c2 D|GAB AGE|A2 G A2 D|
GAB AGE|c2 d e/f/ge|dBG AGE|1 G3 G2:|2 G3 GBd||
|:g2 e dBG|c3 c2d|e/f/ge dBG|A3 ABd|
g2 e dBG|c2 d e/f/ge|dBG AGE|1 G3 GBd:|2 G3 G2D||

